fs/drag_20_regular.svg

<svg viewBox="0 0 20 20" fill="none" xmlns="http://www.w3.org/2000/svg" height="1em" width="1em">
  <path d="M9.64645 2.14645C9.84171 1.95118 10.1583 1.95118 10.3536 2.14645L12.3536 4.14645C12.5488 4.34171 12.5488 4.65829 12.3536 4.85355C12.1583 5.04882 11.8417 5.04882 11.6464 4.85355L10.5 3.70711V6.5C10.5 6.77614 10.2761 7 10 7C9.72386 7 9.5 6.77614 9.5 6.5V3.70711L8.35355 4.85355C8.15829 5.04882 7.84171 5.04882 7.64645 4.85355C7.45118 4.65829 7.45118 4.34171 7.64645 4.14645L9.64645 2.14645ZM10 12C11.1046 12 12 11.1046 12 10C12 8.89543 11.1046 8 10 8C8.89543 8 8 8.89543 8 10C8 11.1046 8.89543 12 10 12ZM10 11C9.44772 11 9 10.5523 9 10C9 9.44772 9.44772 9 10 9C10.5523 9 11 9.44772 11 10C11 10.5523 10.5523 11 10 11ZM15.8536 12.3536L17.8536 10.3536C18.0488 10.1583 18.0488 9.84171 17.8536 9.64645L15.8536 7.64645C15.6583 7.45118 15.3417 7.45118 15.1464 7.64645C14.9512 7.84171 14.9512 8.15829 15.1464 8.35355L16.2929 9.5H13.5C13.2239 9.5 13 9.72386 13 10C13 10.2761 13.2239 10.5 13.5 10.5H16.2929L15.1464 11.6464C14.9512 11.8417 14.9512 12.1583 15.1464 12.3536C15.3417 12.5488 15.6583 12.5488 15.8536 12.3536ZM10.3536 17.8536L12.3536 15.8536C12.5488 15.6583 12.5488 15.3417 12.3536 15.1464C12.1583 14.9512 11.8417 14.9512 11.6464 15.1464L10.5 16.2929V13.5C10.5 13.2239 10.2761 13 10 13C9.72386 13 9.5 13.2239 9.5 13.5V16.2929L8.35355 15.1464C8.15829 14.9512 7.84171 14.9512 7.64645 15.1464C7.45118 15.3417 7.45118 15.6583 7.64645 15.8536L9.64645 17.8536C9.84171 18.0488 10.1583 18.0488 10.3536 17.8536ZM2.14645 10.3536C1.95118 10.1583 1.95118 9.84171 2.14645 9.64645L4.14645 7.64645C4.34171 7.45118 4.65829 7.45118 4.85355 7.64645C5.04882 7.84171 5.04882 8.15829 4.85355 8.35355L3.70711 9.5H6.5C6.77614 9.5 7 9.72386 7 10C7 10.2761 6.77614 10.5 6.5 10.5H3.70711L4.85355 11.6464C5.04882 11.8417 5.04882 12.1583 4.85355 12.3536C4.65829 12.5488 4.34171 12.5488 4.14645 12.3536L2.14645 10.3536Z" fill="#212121"/>
</svg>

<svg viewBox="0 0 20 20" fill="none" xmlns="http://www.w3.org/2000/svg" height="1em" width="1em">
  <path d="M9.646 2.146a.5.5 0 0 1 .708 0l2 2a.5.5 0 0 1-.708.708L10.5 3.707V6.5a.5.5 0 0 1-1 0V3.707L8.354 4.854a.5.5 0 1 1-.708-.708l2-2ZM10 12a2 2 0 1 0 0-4 2 2 0 0 0 0 4Zm0-1a1 1 0 1 1 0-2 1 1 0 0 1 0 2Zm5.854 1.354 2-2a.5.5 0 0 0 0-.708l-2-2a.5.5 0 0 0-.708.708L16.293 9.5H13.5a.5.5 0 0 0 0 1h2.793l-1.147 1.146a.5.5 0 0 0 .708.708Zm-5.5 5.5 2-2a.5.5 0 0 0-.708-.708L10.5 16.293V13.5a.5.5 0 0 0-1 0v2.793l-1.146-1.147a.5.5 0 0 0-.708.708l2 2a.5.5 0 0 0 .708 0Zm-8.208-7.5a.5.5 0 0 1 0-.708l2-2a.5.5 0 1 1 .708.708L3.707 9.5H6.5a.5.5 0 0 1 0 1H3.707l1.147 1.146a.5.5 0 0 1-.708.708l-2-2Z" fill="#212121"/>
</svg>
